public/TypeScript.svg

<svg width="50" height="50" viewBox="0 0 50 50" fill="none" xmlns="http://www.w3.org/2000/svg">
<path d="M0 25V50H50V0H0V25ZM40.2907 23.0062C41.4892 23.2884 42.5787 23.9166 43.4234 24.8126C43.8797 25.3 44.5624 26.1953 44.6203 26.4157C44.6359 26.4812 42.4641 27.9374 41.1453 28.7516C41.0969 28.7843 40.9016 28.5812 40.6891 28.2624C40.0469 27.3266 39.3703 26.9203 38.3374 26.8469C36.8234 26.7484 35.8469 27.5391 35.8547 28.8657C35.8468 29.1902 35.9192 29.5118 36.0657 29.8016C36.4 30.4938 37.0266 30.9078 38.9626 31.7469C42.5438 33.2843 44.0734 34.3016 45.025 35.7422C46.0907 37.3531 46.3266 39.925 45.6109 41.8453C44.8141 43.9203 42.8438 45.3359 40.0766 45.8C39.2219 45.9547 37.1876 45.9297 36.2672 45.7593C34.2578 45.4016 32.3531 44.4078 31.1812 43.1062C30.7172 42.6016 29.8219 41.275 29.8797 41.1859C29.9047 41.1531 30.1078 41.0234 30.3359 40.8922L32.1922 39.8172L33.6328 38.9797L33.9343 39.4266C34.3578 40.0688 35.2766 40.9484 35.8312 41.2407C37.4266 42.0874 39.6157 41.9657 40.6984 40.9969C41.1376 40.6312 41.3828 40.0688 41.35 39.5C41.35 38.9219 41.2766 38.6624 40.975 38.2297C40.5843 37.6766 39.7953 37.2047 37.5407 36.2281C34.9609 35.1126 33.8453 34.4297 32.8376 33.3312C32.2031 32.6082 31.7339 31.7557 31.4624 30.8328C31.275 30.125 31.2266 28.35 31.3734 27.6422C31.9031 25.1438 33.7907 23.4109 36.5 22.8984C37.3797 22.7281 39.4297 22.7922 40.2922 23.0047L40.2907 23.0062ZM28.5562 25.0984L28.5719 27.1407H22.0609V45.6391H17.4547V27.1407H10.9531V25.1391C10.9531 24.0234 10.9781 23.0969 11.0094 23.0719C11.0344 23.0391 14.9891 23.0234 19.7907 23.0312L28.5312 23.0562L28.5562 25.0984Z" fill="#1096E1"/>
</svg>

<svg xmlns="http://www.w3.org/2000/svg" width="50" height="50" fill="none" xmlns:v="https://vecta.io/nano"><path d="M0 25v25h50V0H0v25zm40.291-1.994c1.198.282 2.288.91 3.133 1.806.456.487 1.139 1.383 1.197 1.603.016.066-2.156 1.522-3.475 2.336-.048.033-.244-.17-.456-.489-.642-.936-1.319-1.342-2.352-1.415-1.514-.099-2.491.692-2.483 2.019a1.97 1.97 0 0 0 .211.936c.334.692.961 1.106 2.897 1.945 3.581 1.537 5.111 2.555 6.062 3.995 1.066 1.611 1.302 4.183.586 6.103-.797 2.075-2.767 3.491-5.534 3.955-.855.155-2.889.13-3.809-.041-2.009-.358-3.914-1.352-5.086-2.653-.464-.505-1.359-1.831-1.302-1.92.025-.033.228-.162.456-.294l1.856-1.075 1.441-.837.301.447c.423.642 1.342 1.522 1.897 1.814 1.595.847 3.784.725 4.867-.244.439-.366.684-.928.652-1.497 0-.578-.073-.838-.375-1.27-.391-.553-1.18-1.025-3.434-2.002-2.58-1.115-3.695-1.798-4.703-2.897a6.62 6.62 0 0 1-1.375-2.498c-.187-.708-.236-2.483-.089-3.191.53-2.498 2.417-4.231 5.127-4.744.88-.17 2.93-.106 3.792.106l-.002.002zm-11.734 2.092l.016 2.042h-6.511v18.498h-4.606V27.141h-6.502v-2.002l.056-2.067c.025-.033 3.98-.049 8.781-.041l8.74.025.025 2.042z" fill="#1096e1"/></svg>
